X: 1151
T: ALL THE BLUE BONNETS
B: Oliver Ditson "The Boston Collection of Instrumental Music" 1910 p.115 #1
F: http://conquest.imslp.info/files/imglnks/usimg/8/8f/IMSLP175643-PMLP309456-bostoncollection00bost_bw.pdf
%: 2012 John Chambers <jc:trillian.mit.edu>
M: 6/8
L: 1/8
K: D
[|\
d2z d2z | d>fe dBA | d>BB B2b | bag f>ed |\
d2z d2z | d>fe dBA | gab afd | def e2d |]
|:\
d>fa afd | b>ag f>ed | d>fa bc'd' | d>ed d>BA |\
d>fa afd | b>af ede | g>ab afd | def e2d :|
%%begintext align
Forward two and cross over.
Chassez and cross over to place.
Promenade all.
%%endtext

%%sep 1 1 500
%%sep 1 1 500
